!!!SOCIAL_FUNCTION:	dance songs
!!!PDT:	1943
!!!OTL: No_43_Dance_Song_(d).krn
!!!REG: British Columbia
**kern	**kern
*staff2	*staff1
=1-	=1-
*clefF4	*clefF4
*k[b-e-a-]	*k[b-e-a-]
*M2/4	*M2/4
16GG/LL	4r
16GG/	.
16GG/	.
16GG/JJ	.
16GG/LL	8.r
16GG/	.
16GG/	.
16GG/JJ	16c\
=2	=2
16GG/LL	4..c\
16GG/	.
16GG/	.
16GG/JJ	.
4r	.
.	16B-\
=3	=3
2r	(4B-\
.	12B-\L)
.	12A-\
.	12F\J
=4	=4
2r	4..F\
.	16G\
=5	=5
2r	4.c\
.	16B-\LL
.	16B-\JJ
=6	=6
2r	8c\L
.	(8B-\J
.	12B-\L)
.	12A-\
.	12F\J
=7	=7
2r	4.F\
.	8r
=8	=8
2r	8.B-\L
.	16A-\Jk
.	12B-\L
.	12A-\
.	12F\J
=9	=9
2r	16B-\LK
.	(8.F\J
.	12F\L)
.	12E-\
.	12C\J
=10	=10
2r	4C/
.	4r
=11	=11
2r	16B-\LK
.	8.A-\J
.	12B-\L
.	12A-\
.	12F\J
=12	=12
2r	4F\
.	4E-\
=13	=13
2r	12C/L
.	12BB-/
.	12C/J
.	8C/
.	8r
=14	=14
2r	8.E-\L
.	16E-\Jk
.	8E-/L
.	8C/J
=15	=15
2r	2C/
=16	=16
2r	2BB-/
=17	=17
2r	8C/L
.	8BB-/J
.	4BB-/
=18	=18
2r	2BB-/
==	==
*-	*-
